X: 1174
T: a Fig for a Kiss   #2
R: slipjig
%S: s:2 b:12(4+4+4)
B: O'Neill's 1850 Music of Ireland #1174
Z: Stephen Foy (shf@access.digex.net)
%: abc 1.6
M: 9/8
K: Em
"^A"|: G2B E2B BAG |1,3 F2A D2A AGF :|2,4 (B/c/d).B AGF E3 "^B":: g2e g2e edB |
| f2d ded fed |[1 g2e g2e  edB  | dBG GBd e2f :|2 g2e f2^d e=dB | BdB AGF E3 |]
